resources/assets/images/apartment-details/gym.svg

<?xml version="1.0" encoding="UTF-8"?>
<svg width="22px" height="11px" viewBox="0 0 22 11" version="1.1" xmlns="http://www.w3.org/2000/svg" xmlns:xlink="http://www.w3.org/1999/xlink">
    <!-- Generator: Sketch 60.1 (88133) - https://sketch.com -->
    <title>gym</title>
    <desc>Created with Sketch.</desc>
    <g id="01-03-Apartment-Details" stroke="none" stroke-width="1" fill="none" fill-rule="evenodd">
        <g id="01-03-02-01-Listing-Page" transform="translate(-265.000000, -1019.000000)" fill="#666B7C" fill-rule="nonzero">
            <g id="Features" transform="translate(240.000000, 936.000000)">
                <g id="Gym" transform="translate(0.000000, 52.000000)">
                    <g id="Icons/gym" transform="translate(25.000000, 31.000000)">
                        <g id="gym">
                            <path d="M18.1923077,0 C17.7249898,0 17.3461538,0.378835981 17.3461538,0.846153846 L17.3461538,4.51282051 L4.65384615,4.51282051 L4.65384615,0.846153846 C4.65384615,0.378835981 4.27501017,0 3.80769231,0 C3.34037444,0 2.96153846,0.378835981 2.96153846,0.846153846 L2.96153846,9.87179487 C2.96153846,10.3391127 3.34037444,10.7179487 3.80769231,10.7179487 C4.27501017,10.7179487 4.65384615,10.3391127 4.65384615,9.87179487 L4.65384615,6.20512821 L17.3461538,6.20512821 L17.3461538,9.87179487 C17.3461538,10.3391127 17.7249898,10.7179487 18.1923077,10.7179487 C18.6596256,10.7179487 19.0384615,10.3391127 19.0384615,9.87179487 L19.0384615,0.846153846 C19.0384615,0.378835981 18.6596256,0 18.1923077,0 Z" id="Path"></path>
                            <path d="M0.987179487,2.82051282 C0.519861622,2.82051282 0.141025641,3.1993488 0.141025641,3.66666667 L0.141025641,7.05128205 C0.141025641,7.51859992 0.519861622,7.8974359 0.987179487,7.8974359 C1.45449735,7.8974359 1.83333333,7.51859992 1.83333333,7.05128205 L1.83333333,3.66666667 C1.83333333,3.1993488 1.45449735,2.82051282 0.987179487,2.82051282 Z" id="Path"></path>
                            <path d="M21.0128205,2.82051282 C20.5455026,2.82051282 20.1666667,3.1993488 20.1666667,3.66666667 L20.1666667,7.05128205 C20.1666667,7.51859992 20.5455026,7.8974359 21.0128205,7.8974359 C21.4801384,7.8974359 21.8589744,7.51859992 21.8589744,7.05128205 L21.8589744,3.66666667 C21.8589744,3.1993488 21.4801384,2.82051282 21.0128205,2.82051282 Z" id="Path"></path>
                        </g>
                    </g>
                </g>
            </g>
        </g>
    </g>
</svg>

<svg xmlns="http://www.w3.org/2000/svg" width="24" height="24" viewBox="0 0 24 24"><g><g><g><g><path fill="#666b7c" d="M18.19 0a.846.846 0 0 0-.845.846v3.667H4.652V.846a.846.846 0 0 0-1.692 0v9.026a.846.846 0 1 0 1.692 0V6.205h12.693v3.667a.846.846 0 1 0 1.692 0V.846A.846.846 0 0 0 18.19 0z"/></g><g><path fill="#666b7c" d="M.986 2.82a.846.846 0 0 0-.846.846v3.385a.846.846 0 0 0 1.692 0V3.666a.846.846 0 0 0-.846-.846z"/></g><g><path fill="#666b7c" d="M21.016 2.82a.846.846 0 0 0-.846.846v3.385a.846.846 0 0 0 1.692 0V3.666a.846.846 0 0 0-.846-.846z"/></g></g></g></g></svg>
